X:1
T:Th'apostles and brethern
T:Christopher Tye
T:Source : Actes of the Apostles---Chapter XI---1553. Editor : André Vierendeels (12/01/17).
T:Th'apostles and bretherne
T:©
T:©
T:©
C:Christopher Tye
Z:©
%%score [ 1 [ 2 3 ] 4 ]
L:1/8
Q:1/4=120
M:4/4
K:F
V:1 treble nm="Soprano" snm="S"
V:2 treble-8 nm="Tenor 1" snm="T 1"
V:3 treble-8 nm="Tenor 2" snm="T 2"
V:4 bass nm="Bass" snm="B"
V:1
 z2 G2 G3 ^F | G2 A2 F2 G2 | A2 B2 A2 d2 | B2 c2 d4 | z2 d2 c2 B2 | A2 A2 G3 G | ^F2 d2 c2 B2 | %7
w: Th'a- post- les|and bre- therne were|glad, through out Je-|ru- sa- lem,|to heare the|hea- then re- ceyvyd|had, the worde of|
 A2 G3 ^F/E/ F2 | G2 G2 ^F3 G | A2 A2 A2 G2 | A4 z2 A2 | A2 B2 G3 G | ^F4 z4 | z4 z2 A2 | %14
w: God _ _ _ to|them, when Pe- ter|to Je- ru- sa-|lem came|to his ior- neys|ende.|they|
 B2 G2 c2 A2 | d3 d G2 B2 | A2 G2 G2 ^F2 | G8 |] %18
w: of the cir- cum-|ci- si- on wyth|him dyd then con-|tend.|
V:2
 z2 d2 d3 d | d2 d2 d2 d2 | f2 f2 f2 d2 | g3 g ^f4 |"^-natural" z2 f2 a2 g2 | f2 d2 d2 c2 | %6
w: Th'a- post- les|and bre- therne were|glad, through out Je-|ru- sa- lem,|to heare the|hea- then re- ceyvyd|
 d2 a2 a2 f2 | f2 d2 d4 | z2 d2 d2 d2 |"^-natural" c2 f2 e2 d2- | de c2 d2 f2- | f_e d2 d2 c2 | %12
w: had, the worde of|God to them,|when Pe- ter|to Je- ru- sa|_ le _ _ came|_ to his ior- neys|
 d4 z4 | B2 _e2 c2 f2 | d3 e f3 f | f4 z2 d2 | f2 e2 d3 c | =B8 |] %18
w: ende,|they of the cir-|cum- * ci- si-|on wyth|him dyd then con-|tend.|
V:3
 z2 B2 B3 A | B2 A2 A2 B2 | c2 d2 c2 B2 | G2 G2 A4 | z2 B2 A2 d2 | d2 A2 B2 G2 | %6
w: Th'a- post- les|and bre- therne were|glad, through out Je-|ru- sa- lem,|to heare the|hea- then re- ceyvyd|
"^-natural" A2 f2 e2 d2 | c2 B2 AG A2 | G2 B2 A2 A2 | A2 d2 c2 de | fg e2 d2 d2 | c2 B2 B2 A2 | %12
w: had, the worde of|God to _ _ _|them, when Pe- ter|to Je- ru- sa- *|* * * lem came|to his ior- neys|
 A4 A2 B2 | G2 c2 A2 d2- | dc B2 A2 F2 | B2 d2 c2 B2 | c3 B AG A2 | G8 |] %18
w: ende, they of|the cir- cum- ci-|* * si- on, wyth|him dyd then con-|tend, con- * * *|tend.|
V:4
 z2 G,2 G,3 D, | G,2 F,2 D,2 G,2 | F,2 B,,2 F,2 B,,2 | _E,3 E, D,4 | z2 B,,2 F,2 G,2 | %5
w: Th'a- post- les|and bre- therne were|glad, through out Je-|ru- sa- lem,|to heare the|
 D,2 F,2 _E,3 E, | D,2 D,2 A,2 B,2 | F,2 G,2 D,4 | z2 G,,2 D,3 E, |"^-natural" F,2 D,2 A,2 B,2 | %10
w: hea- then re- ceyvyd|had, the worde of|God to them,|when Pe- ter|to Je- ru- sa-|
 A,4 z2 D,2 | F,2 G,2 _E,3 E, | D,4 z2 D,2 | _E,2 C,2 F,2 D,2 | G,3 G, F,4 | z2 B,,2 _E,2 G,2 | %16
w: lem came|to his ior- neys|ende, they|of the cir- cum-|ci- si- on,|wyth him dyd|
 F,2 C,2 D,4 | G,,8 |] %18
w: then con- *|tend.|

